X:191
T:Put down your stick - Treise
%%VWML:SBG-1-2-350-0
F:http://www.vwml.org/record/SBG/1/2/350
Z:Original Sibelius transcriptions by M. & S. Graebe
M:3/4
I:linebreak $
K:F
V:1 treble nm="P1"
V:1
 c2 | cB A3 c | cB A3 c | c3 B A G2 | F2 z2 F2 | EF G3 G | FG A2 A2 |$ Gd c2 A2 | A4 A2 | Ac f3 c | %10
 cd d2 d2 | cF E3 F | F6 | %13

